X:31
T:Dubbele klappolka
R:Polka
Z:Bert Van Vreckem <http://flanders.blackmill.net/music/>
M:2/4
L:1/8
Q:1/4=126
K:F
cc A2|dd c2|cc BA|B4|ee d2|ee d2|[1cf ed|c4:|[2cc de|f4||
Q:1/4=120
A2 c2|f2 cA|B2 c2|e4|B2 c2|e2 dB|A2 c2|f4|A2 c2|f2 cA|B2 c2|e4|B2 c2|e2 de|f2 f2|f4||
A3 c|ff f2|B3 c|ee e2|B3 c|ee e2|A3 c|ff f2|A3 c|ff f2|B3 c|ee e2|B3 c|ee e2|c>c de|ff f2|]

